!!!OTL: 30. Freylekhs
!!!Genre:	Freylekhs
!!!Mode:	Freygish
!!!Listening/dance:	listening
!!!:	*B-:
!!!One_Mode:	no
!!!Orig_tonic: A
**kern
*thru
*I"P1
*clefG2
*k[b-e-a-]
*B-:
!LO:TX:a:i:t=Bb-major
=14
[4b-X
16b-LL]
16f
16dd
16ccJJ
=15
[4b-
16b-LL]
16f
16dd
16ccJJ
=16
16b-LL
16f
16dd
16ccJJ
16b-LL
16f
16dd
16ccJJ
*>B1
!!!Begin-Modulation1
=17
[4b-
16b-LL]
16g
16an
16bnJJ
*>B
!!!End-Modulation1
!!!Begin-Modulation2
[4cc
16ccLL]
16g
16ee-
16ddJJ
=11
[4cc
16ccLL]
16g
16ee-
16ddJJ
=12
16ccLL
16g
16ee-
16ddJJ
16ccLL
16g
16ee-
16ddJJ
=13
8ccL
(16aa-'L
16gg'JJ
16ff'LL
16ee-'
16dd'
16cc'JJ)
!!!End-Modulation
!!!Begin-Modulation
*B-:
!LO:TX:a:i:t=Bb-major
=14
[4b-X
16b-LL]
16f
16dd
16ccJJ
=15
[4b-
16b-LL]
16f
16dd
16ccJJ
=16
16b-LL
16f
16dd
16ccJJ
16b-LL
16f
16dd
16ccJJ
!!!Begin-Modulation1
*>B2
=18:|!
4.b-X
(8gg
*>C
!!!End-Modulation
*-
